src/images/mesh-icon/icon_path.svg

<svg height="16" viewBox="0 0 16 16" width="16" xmlns="http://www.w3.org/2000/svg"><g fill="none" fill-rule="evenodd"><path d="m6.50572018 5.03533129.42720222 5.59671871-3.60423293.2395561z" stroke="#a2b0bd" stroke-width=".85067"/><path d="m13.414517 11.3472768-4.54868385.0812946c-.1196104.0020641-.22075593-.1264128-.24821477-.3008996l-.0073332-.0997093.05182127-7.12945254c.00190774-.26246258.13920301-.47280656.30665757-.46984792.07921826.00144604.15493734.05139857.21095675.13920148l4.44575303 6.96812218c.1184159.1856011.1184159.48652 0 .6721211-.0560194.0878029-.1317385.1377554-.2109568.13917z" fill="#a2b0bd"/></g></svg>

<?xml version="1.0" encoding="UTF-8"?>
<svg width="16px" height="16px" viewBox="0 0 16 16" version="1.1" xmlns="http://www.w3.org/2000/svg" xmlns:xlink="http://www.w3.org/1999/xlink">
    <title>Path</title>
    <g id="Dashboard" stroke="none" stroke-width="1" fill="none" fill-rule="evenodd">
        <g id="20-开发环境-编辑-共享开发空间" transform="translate(-1295.000000, -549.000000)">
            <g id="创建共享开发环境" transform="translate(244.000000, 104.000000)">
                <g id="Right" transform="translate(420.000000, 56.000000)">
                    <g id="集群" transform="translate(0.000000, 127.000000)">
                        <g id="矩形备份-7" transform="translate(522.000000, 186.000000)">
                            <g id="编组-13" transform="translate(16.000000, 64.000000)">
                                <g id="编组-7备份-25" transform="translate(20.000000, 12.000000)">
                                    <g id="icon_close" transform="translate(73.000000, 0.000000)">
                                        <g id="编组-18" transform="translate(0.000000, 0.000000)">
                                            <path d="M6.50572018,5.03533129 L6.9329224,10.63205 L3.32868947,10.8716061 L6.50572018,5.03533129 Z" id="Path" stroke="#A2B0BD" stroke-width="0.850669615"></path>
                                            <path d="M13.414517,11.3472768 L8.86583315,11.4285714 C8.74622275,11.4306355 8.64507722,11.3021586 8.61761838,11.1276718 L8.61028518,11.0279625 L8.66210645,3.89850996 C8.66401419,3.63604738 8.80130946,3.4257034 8.96876402,3.42866204 C9.04798228,3.43010808 9.12370136,3.48006061 9.17972077,3.56786352 L13.6254738,10.5359857 C13.7438897,10.7215868 13.7438897,11.0225057 13.6254738,11.2081068 C13.5694544,11.2959097 13.4937353,11.3458622 13.414517,11.3472768 Z" id="Path" fill="#A2B0BD"></path>
                                        </g>
                                    </g>
                                </g>
                            </g>
                        </g>
                    </g>
                </g>
            </g>
        </g>
    </g>
</svg>
